X: 1
T: All Around The Holly Tree
M: 6/8
L: 1/8
R: jig
K: Amaj
E|:aga ~f2e|cee Ace|aga~f2e|cBB BcB|
Aaa ~f2e|cee A/B/c/d/e|aga~f2e|[1 cAA A2 e:|[2 cAA A3||
|:ABc cee | cBB cee| ABc ecA | cBB ~B3|
ABc cee | cBB cee|aga~f2e|[1 cAA A3:|[2 cAA A2 e||
